svg/monochrome/object-ungroup.svg

<svg xmlns="http://www.w3.org/2000/svg" enable-background="new 0 0 24 24" viewBox="0 0 24 24"><path class="uim-tertiary" d="M4,16c-1.10457,0-2-0.89543-2-2s0.89543-2,2-2s2,0.89543,2,2C5.99857,15.10398,5.10398,15.99857,4,16z M4,13.998L4,13.998z M4,6C2.89543,6,2,5.10457,2,4s0.89543-2,2-2s2,0.89543,2,2C5.99857,5.10398,5.10398,5.99857,4,6z M4,3.99805L4,3.99805z M14,6c-1.10457,0-2-0.89543-2-2s0.89543-2,2-2s2,0.89543,2,2C15.99857,5.10398,15.10398,5.99857,14,6z M14,3.99805L14,3.99805z M14,16c-1.10457,0-2-0.89543-2-2s0.89543-2,2-2s2,0.89543,2,2C15.99857,15.10398,15.10398,15.99857,14,16z M14,13.998L14,13.998z"/><path class="uim-primary" d="M10,22c-1.10457,0-2-0.89543-2-2s0.89543-2,2-2s2,0.89543,2,2C11.99857,21.10398,11.10398,21.99857,10,22z M10,19.998L10,19.998z M10,12c-1.10457,0-2-0.89543-2-2s0.89543-2,2-2s2,0.89543,2,2C11.99857,11.10398,11.10398,11.99857,10,12z M10,9.998L10,9.998z M20,12c-1.10457,0-2-0.89543-2-2s0.89543-2,2-2s2,0.89543,2,2C21.99857,11.10398,21.10398,11.99857,20,12z M20,9.998L20,9.998z M20,22c-1.10457,0-2-0.89543-2-2s0.89543-2,2-2s2,0.89543,2,2C21.99857,21.10398,21.10398,21.99857,20,22z M20,19.998L20,19.998z"/><path class="uim-quaternary" d="M12.27832,5c-0.37109-0.61503-0.37109-1.38497,0-2H5.72168c0.37109,0.61503,0.37109,1.38497,0,2H12.27832z M4,12c0.35218,0.00201,0.69742,0.0981,1,0.27832V5.72168c-0.61503,0.37109-1.38497,0.37109-2,0v6.55664C3.30258,12.0981,3.64782,12.00201,4,12z"/><path class="uim-tertiary" d="M20,18c0.35218,0.00201,0.69742,0.0981,1,0.27832v-6.55664c-0.61502,0.37109-1.38498,0.37109-2,0v6.55664C19.30258,18.0981,19.64782,18.00201,20,18z M10,18c0.35218,0.00201,0.69742,0.0981,1,0.27832v-6.55664c-0.61503,0.37109-1.38497,0.37109-2,0v6.55664C9.30258,18.0981,9.64782,18.00201,10,18z"/><path class="uim-quaternary" d="M12.27832,13H11v2h1.27832C11.90723,14.38497,11.90723,13.61503,12.27832,13z M9,15v-2H5.72168c0.37109,0.61503,0.37109,1.38497,0,2H9z"/><path class="uim-tertiary" d="M18.27832,19h-6.55664c0.37109,0.61502,0.37109,1.38498,0,2h6.55664C17.90723,20.38498,17.90723,19.61502,18.27832,19z M18.27832,11c-0.37109-0.61503-0.37109-1.38497,0-2h-6.55664c0.37109,0.61503,0.37109,1.38497,0,2H18.27832z"/><path class="uim-quaternary" d="M15,9V5.72168c-0.61503,0.37109-1.38497,0.37109-2,0V9H15z M13,11v1.27832c0.61503-0.37109,1.38497-0.37109,2,0V11H13z"/></svg>

<svg xmlns="http://www.w3.org/2000/svg" enable-background="new 0 0 24 24" viewBox="0 0 24 24"><path class="uim-tertiary" d="M4 16a2 2 0 1 1 0-4 2 2 0 0 1 0 4zm0-2.002zM4 6a2 2 0 1 1 0-4 2 2 0 0 1 0 4zm0-2.002zM14 6a2 2 0 1 1 0-4 2 2 0 0 1 0 4zm0-2.002zM14 16a2 2 0 1 1 0-4 2 2 0 0 1 0 4zm0-2.002z"/><path class="uim-primary" d="M10 22a2 2 0 1 1 0-4 2 2 0 0 1 0 4zm0-2.002zM10 12a2 2 0 1 1 0-4 2 2 0 0 1 0 4zm0-2.002zM20 12a2 2 0 1 1 0-4 2 2 0 0 1 0 4zm0-2.002zM20 22a2 2 0 1 1 0-4 2 2 0 0 1 0 4zm0-2.002z"/><path class="uim-quaternary" d="M12.278 5a1.936 1.936 0 0 1 0-2H5.722a1.936 1.936 0 0 1 0 2h6.556zM4 12c.352.002.697.098 1 .278V5.722a1.936 1.936 0 0 1-2 0v6.556c.303-.18.648-.276 1-.278z"/><path class="uim-tertiary" d="M20 18c.352.002.697.098 1 .278v-6.556a1.936 1.936 0 0 1-2 0v6.556c.303-.18.648-.276 1-.278zm-10 0c.352.002.697.098 1 .278v-6.556a1.936 1.936 0 0 1-2 0v6.556c.303-.18.648-.276 1-.278z"/><path class="uim-quaternary" d="M12.278 13H11v2h1.278a1.936 1.936 0 0 1 0-2zM9 15v-2H5.722a1.936 1.936 0 0 1 0 2H9z"/><path class="uim-tertiary" d="M18.278 19h-6.556a1.936 1.936 0 0 1 0 2h6.556a1.936 1.936 0 0 1 0-2zm0-8a1.936 1.936 0 0 1 0-2h-6.556a1.936 1.936 0 0 1 0 2h6.556z"/><path class="uim-quaternary" d="M15 9V5.722a1.936 1.936 0 0 1-2 0V9h2zm-2 2v1.278a1.936 1.936 0 0 1 2 0V11h-2z"/></svg>
